assets/Woman juggling/Medium-Light/Flat/woman_juggling_flat_medium-light.svg

<svg width="32" height="32" viewBox="0 0 32 32" fill="none" xmlns="http://www.w3.org/2000/svg">
<path d="M26.75 16.5C27.7165 16.5 28.5 15.7165 28.5 14.75C28.5 13.7835 27.7165 13 26.75 13C25.7835 13 25 13.7835 25 14.75C25 15.7165 25.7835 16.5 26.75 16.5Z" fill="#FCD53F"/>
<path d="M5.75 14.5C6.7165 14.5 7.5 13.7165 7.5 12.75C7.5 11.7835 6.7165 11 5.75 11C4.7835 11 4 11.7835 4 12.75C4 13.7165 4.7835 14.5 5.75 14.5Z" fill="#0084CE"/>
<path d="M24.75 6.5C25.7165 6.5 26.5 5.7165 26.5 4.75C26.5 3.7835 25.7165 3 24.75 3C23.7835 3 23 3.7835 23 4.75C23 5.7165 23.7835 6.5 24.75 6.5Z" fill="#86D72F"/>
<path d="M8.75 5.5C9.7165 5.5 10.5 4.7165 10.5 3.75C10.5 2.7835 9.7165 2 8.75 2C7.7835 2 7 2.7835 7 3.75C7 4.7165 7.7835 5.5 8.75 5.5Z" fill="#F92F60"/>
<path d="M23.5245 30V22.6099C21.5445 20.7799 18.9145 19.6899 16.0845 19.6899C13.2345 19.6899 10.5845 20.7899 8.60449 22.6399V30H10.5048L11.2407 29.5681L11.9767 30H19.972L20.7315 29.5681L21.491 30H23.5245Z" fill="#E1D8EC"/>
<path d="M13.5 24L13 20.5H19L18.5 24H13.5Z" fill="#F3EEF8"/>
<path d="M14.2212 22.6601L15.7692 23.5901C15.9231 23.6801 16 23.8401 16 24.0001C16 23.8401 16.0769 23.6801 16.2308 23.5901L17.7788 22.6601C18.3173 22.3301 19 22.7401 19 23.3901V24.6101C19 25.2601 18.3173 25.6701 17.7788 25.3401L16.2308 24.4101C16.0769 24.3201 16 24.1601 16 24.0001C16 24.1601 15.9231 24.3201 15.7692 24.4101L14.2212 25.3401C13.6827 25.6701 13 25.2601 13 24.6101V23.3901C13 22.7401 13.6827 22.3301 14.2212 22.6601Z" fill="#F70A8D"/>
<path d="M15.2144 23.48V24.38C15.2144 24.65 15.4344 24.86 15.6944 24.86H16.4044C16.6744 24.86 16.8844 24.64 16.8844 24.38V23.48C16.8844 23.21 16.6644 23 16.4044 23H15.6944C15.4344 23 15.2144 23.21 15.2144 23.48Z" fill="#F837A2"/>
<path d="M16.75 26.25C16.75 26.6642 16.4142 27 16 27C15.5858 27 15.25 26.6642 15.25 26.25C15.25 25.8358 15.5858 25.5 16 25.5C16.4142 25.5 16.75 25.8358 16.75 26.25Z" fill="#F3EEF8"/>
<path d="M16.75 28.25C16.75 28.6642 16.4142 29 16 29C15.5858 29 15.25 28.6642 15.25 28.25C15.25 27.8358 15.5858 27.5 16 27.5C16.4142 27.5 16.75 27.8358 16.75 28.25Z" fill="#F3EEF8"/>
<path d="M21.5 21.1267V30H20V20.4155C20.5188 20.6149 21.0201 20.8529 21.5 21.1267Z" fill="#8D65C5"/>
<path d="M12 20.4785V30H10.5V21.2191C10.9789 20.9353 11.4802 20.6874 12 20.4785Z" fill="#8D65C5"/>
<path d="M9.05819 11C8.96835 11.3989 8.80797 11.7812 8.5821 12.1267L8.57966 12.1306C8.21463 12.6904 8 13.3467 8 14.0674C8 14.6173 8.12938 15.124 8.34501 15.5876C8.42049 15.7385 8.42049 15.9218 8.34501 16.0728C8.12938 16.5256 8 17.0323 8 17.5714C8 19.469 9.531 21 11.4286 21H20.5714C22.469 21 24 19.469 24 17.5714C24 17.0323 23.8706 16.5256 23.655 16.0728C23.5795 15.9218 23.5795 15.7385 23.655 15.5876C23.8814 15.124 24 14.6065 24 14.0674C24 13.5695 23.8976 13.1024 23.7139 12.6765H23.7196C23.6339 12.4837 23.5375 12.3016 23.42 12.13L23.4178 12.1267C23.1919 11.7812 23.0315 11.3989 22.9417 11L16 10L9.05819 11Z" fill="#FFF9BA"/>
<path d="M15.9954 22.5C14.8868 22.5 14 21.6872 14 20.6899V19.5H18V20.6899C17.9908 21.6872 17.0947 22.5 15.9954 22.5Z" fill="#E4B29A"/>
<path d="M12.8043 14.39C12.8043 15.3178 12.0522 16.07 11.1243 16.07C10.1965 16.07 9.44434 15.3178 9.44434 14.39C9.44434 13.4621 10.1965 12.71 11.1243 12.71C12.0522 12.71 12.8043 13.4621 12.8043 14.39Z" fill="#E4B29A"/>
<path d="M22.6745 14.39C22.6745 15.3178 21.9223 16.07 20.9945 16.07C20.0666 16.07 19.3145 15.3178 19.3145 14.39C19.3145 13.4621 20.0666 12.71 20.9945 12.71C21.9223 12.71 22.6745 13.4621 22.6745 14.39Z" fill="#E4B29A"/>
<path d="M20.0888 10.45H16.7725C15.4538 10.45 14.2238 9.76476 13.4857 8.62271C13.3578 8.43583 13.0921 8.46698 13.0035 8.685L12.9248 8.89265C12.6886 9.5052 12.2458 9.98278 11.6947 10.2423C11.6553 10.2527 11.616 10.2631 11.5865 10.2839C11.3404 10.4085 10.7697 10.8134 10.75 11.8516L10.8878 15.34C11.0059 18.4339 13.2692 20.5 16.0049 20.5C18.7505 20.5 21.004 18.4339 21.1221 15.34L21.25 12.0281C21.25 10.5538 20.2758 10.45 20.0888 10.45Z" fill="#EEBFAA"/>
<path d="M16.0005 17.6529C15.4431 17.6529 14.9262 17.5153 14.4904 17.2717C14.3383 17.187 14.1863 17.367 14.2775 17.5153C14.6424 18.1082 15.2809 18.5 16.0005 18.5C16.7201 18.5 17.3586 18.1082 17.7235 17.5153C17.8147 17.367 17.6525 17.187 17.5106 17.2717C17.0748 17.5153 16.5579 17.6529 16.0005 17.6529Z" fill="#990838"/>
<path d="M15.6557 14.2887L15.1626 16.0308C15.0603 16.3854 15.3022 16.75 15.6464 16.75H16.3814C16.7257 16.75 16.9676 16.3854 16.8652 16.0308L16.3721 14.2887C16.2605 13.9038 15.7581 13.9038 15.6557 14.2887Z" fill="#D19479"/>
<path d="M13.2127 12.75C13.8153 12.75 14.3075 13.17 14.6088 13.63C14.3575 13.7054 14.1122 13.7749 13.8691 13.8438C13.4028 13.9759 12.9448 14.1057 12.4694 14.27L11.9572 13.81C11.7463 13.62 11.7664 13.28 11.9974 13.12C12.3389 12.88 12.7908 12.75 13.2127 12.75Z" fill="black"/>
<path d="M18.776 12.75C18.1734 12.75 17.6812 13.17 17.3799 13.63C17.6311 13.7054 17.8765 13.7749 18.1196 13.8438C18.5859 13.9759 19.0439 14.1057 19.5192 14.27L20.0315 13.81C20.2424 13.62 20.2223 13.28 19.9913 13.12C19.6498 12.88 19.1978 12.75 18.776 12.75Z" fill="black"/>
<path d="M12.2143 14.0797C12.3743 13.4497 12.9443 12.9897 13.6143 12.9897C14.3143 12.9897 14.8943 13.4897 15.0243 14.1497C15.0443 14.2997 14.9343 14.4297 14.7843 14.4297H12.4943C12.3043 14.4297 12.1743 14.2597 12.2143 14.0797Z" fill="white"/>
<path d="M19.9344 14.0797C19.7744 13.4497 19.2044 12.9897 18.5344 12.9897C17.8344 12.9897 17.2544 13.4897 17.1244 14.1497C17.1044 14.2997 17.2144 14.4297 17.3644 14.4297H19.6544C19.8444 14.4297 19.9744 14.2597 19.9344 14.0797Z" fill="white"/>
<path d="M12.9043 14.19C12.9043 13.68 13.3143 13.27 13.8243 13.27C14.3343 13.27 14.7443 13.68 14.7343 14.19C14.7343 14.27 14.7243 14.35 14.7043 14.43H12.9343C12.9143 14.36 12.9043 14.27 12.9043 14.19Z" fill="#7D4533"/>
<path d="M19.2442 14.19C19.2442 13.68 18.8342 13.27 18.3242 13.27C17.8142 13.27 17.4042 13.68 17.4142 14.19C17.4142 14.27 17.4242 14.35 17.4442 14.43H19.2142C19.2342 14.36 19.2442 14.27 19.2442 14.19Z" fill="#7D4533"/>
<path d="M13.8244 13.6602C14.1144 13.6602 14.3544 13.9002 14.3544 14.1902C14.3544 14.2802 14.3244 14.3602 14.2844 14.4302H13.3544C13.3144 14.3602 13.2944 14.2802 13.2944 14.1902C13.2944 13.9002 13.5344 13.6602 13.8244 13.6602Z" fill="black"/>
<path d="M18.3344 13.6602C18.0444 13.6602 17.8044 13.9002 17.8044 14.1902C17.8044 14.2802 17.8244 14.3602 17.8744 14.4302H18.8044C18.8444 14.3602 18.8644 14.2802 18.8644 14.1902C18.8644 13.9002 18.6244 13.6602 18.3344 13.6602Z" fill="black"/>
<path d="M13.6742 13.8202C13.6742 13.9085 13.6026 13.9802 13.5142 13.9802C13.4259 13.9802 13.3542 13.9085 13.3542 13.8202C13.3542 13.7318 13.4259 13.6602 13.5142 13.6602C13.6026 13.6602 13.6742 13.7318 13.6742 13.8202Z" fill="white"/>
<path d="M18.2043 13.8202C18.2043 13.9085 18.1326 13.9802 18.0443 13.9802C17.9559 13.9802 17.8843 13.9085 17.8843 13.8202C17.8843 13.7318 17.9559 13.6602 18.0443 13.6602C18.1326 13.6602 18.2043 13.7318 18.2043 13.8202Z" fill="white"/>
<path d="M12.3725 11.8064C12.2489 11.9013 12.2257 12.0784 12.3206 12.2019C12.4155 12.3254 12.5924 12.3487 12.716 12.254L12.7181 12.2524C12.7213 12.2501 12.727 12.246 12.7351 12.2405C12.7514 12.2294 12.7772 12.2124 12.812 12.1918C12.8816 12.1505 12.986 12.0952 13.1197 12.0428C13.3873 11.938 13.7677 11.8469 14.2214 11.9003C14.3761 11.9185 14.5163 11.8078 14.5345 11.6531C14.5527 11.4983 14.442 11.3581 14.2873 11.3399C13.721 11.2733 13.2463 11.3873 12.9139 11.5174C12.7477 11.5826 12.6158 11.6522 12.5242 11.7065C12.4783 11.7337 12.4422 11.7573 12.4168 11.7747L12.3725 11.8064Z" fill="#A56953"/>
<path d="M19.8282 12.2019C19.9231 12.0784 19.8996 11.9011 19.7761 11.8062L19.732 11.7747C19.7065 11.7573 19.6705 11.7337 19.6246 11.7065C19.5329 11.6522 19.4011 11.5826 19.2348 11.5174C18.9024 11.3873 18.4278 11.2733 17.8615 11.3399C17.7067 11.3581 17.5961 11.4983 17.6143 11.6531C17.6325 11.8078 17.7727 11.9185 17.9274 11.9003C18.3811 11.8469 18.7614 11.938 19.0291 12.0428C19.1628 12.0952 19.2672 12.1505 19.3368 12.1918C19.3715 12.2124 19.3974 12.2294 19.4136 12.2405C19.4217 12.246 19.4274 12.2501 19.4306 12.2524L19.4335 12.2545C19.557 12.3486 19.7335 12.3252 19.8282 12.2019Z" fill="#A56953"/>
<path d="M2.15788 19.2472L2.44979 19.5874C2.20675 19.8274 2.1887 20.214 2.4135 20.4693C2.4135 20.4693 2.62827 20.7159 3.01691 21.1679C3.47715 21.6918 4.1317 22 4.82716 22L8.99993 22.3904V19.9967C8.99993 19.0413 8.66243 18.127 8.03856 17.4079L7.49651 16.7915C7.19991 16.4422 6.67832 16.4011 6.33058 16.6991C5.98285 16.997 5.94194 17.5209 6.23854 17.8702L6.60672 18.2811C6.67832 18.3633 6.61695 18.4969 6.50445 18.4969L5.55769 18.4866L4.54081 17.295C4.30558 17.0176 3.89648 16.9868 3.62034 17.223C3.55081 17.2825 3.49685 17.3531 3.45877 17.4298C3.21849 17.2197 2.85846 17.2142 2.60789 17.4286C2.37884 17.6246 2.31867 17.9407 2.43905 18.2012C2.3646 18.2275 2.29347 18.2679 2.22947 18.3227C1.95334 18.5589 1.92265 18.9699 2.15788 19.2472Z" fill="#EEBFAA"/>
<path d="M27.5197 22.2202C27.3138 22.7102 27.1735 23.2302 27.0986 23.7602C27.0612 24.0002 26.9957 24.2302 26.8927 24.4502C26.3594 25.5902 25.0587 26.0602 23.9919 25.5002C23.5241 25.2602 23.1872 24.8602 22.9813 24.4002C22.972 24.3902 22.9626 24.3802 22.9626 24.3702C22.8503 24.0802 21.8959 21.8002 21.3064 20.4102C21.166 20.0902 21.297 19.7202 21.5965 19.5802C21.8959 19.4302 22.2421 19.5702 22.3731 19.8902C22.3786 19.8902 22.4258 20.0035 22.5035 20.1898C22.5585 20.3215 22.6286 20.4897 22.71 20.6802C22.7287 20.7202 22.7942 20.7002 22.7755 20.6502L22.2328 19.0402C22.1205 18.7102 22.2795 18.3302 22.5883 18.2202C22.8878 18.1102 23.2153 18.2802 23.3276 18.6002L23.7767 20.0802C23.7861 20.1002 23.8142 20.0902 23.8142 20.0702C23.6364 19.0702 23.496 18.0102 23.496 17.9602C23.4679 17.6202 23.7112 17.3102 24.0294 17.2802C24.3475 17.2502 24.6376 17.5102 24.6657 17.8502C24.6657 17.8702 24.7593 18.8802 25.0119 20.0802C25.0213 20.1002 25.04 20.1202 25.0587 20.1202C25.0868 20.1102 25.1055 20.0902 25.1055 20.0602C25.1012 20.0189 25.0949 19.9756 25.0885 19.9311C25.0809 19.8785 25.0731 19.8244 25.068 19.7702C24.9558 18.8902 24.937 18.2002 24.937 18.1702C24.9277 17.8302 25.1803 17.5402 25.5078 17.5302C25.826 17.5202 26.0974 17.7902 26.1067 18.1402C26.1161 18.6802 26.2096 19.9802 26.4717 21.0302C26.4904 21.1102 26.5839 21.1202 26.612 21.0502C26.8553 20.5702 27.0424 20.2502 27.0612 20.2202C27.2483 19.9002 27.6507 19.8002 27.9501 20.0102C28.2496 20.2102 28.3431 20.6402 28.1466 20.9602C28.1466 20.9622 28.1331 20.9868 28.109 21.0307C28.0159 21.1999 27.7648 21.6565 27.5197 22.2202Z" fill="#EEBFAA"/>
<path d="M5 22H9V29.9999H5V22Z" fill="#CDC4D6"/>
<path d="M23 24.3799H27V29.9999H23V24.3799Z" fill="#CDC4D6"/>
<path d="M5.67733 18.5306L4.5884 17.2545C4.33055 16.9505 3.88181 16.917 3.57963 17.1755C3.52403 17.2231 3.47745 17.2772 3.44009 17.3358C3.17936 17.1528 2.82146 17.1636 2.56725 17.3811C2.33385 17.5808 2.26062 17.8946 2.35759 18.1668C2.29813 18.1942 2.24131 18.2303 2.18889 18.2751C1.88631 18.534 1.85294 18.9844 2.11017 19.2877L2.4151 19.6034C2.43356 19.6225 2.46125 19.6273 2.48435 19.6176C2.49898 19.6178 2.51375 19.6128 2.52574 19.6026C2.77572 19.3887 3.145 19.4167 3.35767 19.6671L4.01197 20.4579C4.03398 20.4845 4.07338 20.4882 4.09997 20.4662C4.12656 20.4442 4.13028 20.4048 4.10828 20.3782L3.45373 19.5871C3.20404 19.2927 2.77483 19.2514 2.47353 19.484L2.20433 19.2053C1.99248 18.9539 2.02097 18.5833 2.27016 18.3701C2.52024 18.1561 2.88982 18.1844 3.10245 18.4351L4.42386 19.9836C4.44626 20.0099 4.48571 20.013 4.51197 19.9906C4.53823 19.9682 4.54135 19.9288 4.51894 19.9025L3.19766 18.3541C3.01333 18.1368 2.73144 18.0577 2.47528 18.1247C2.39519 17.8997 2.45585 17.641 2.64851 17.4761C2.87033 17.2863 3.18608 17.287 3.40299 17.4645C3.40899 17.4749 3.41802 17.4836 3.42958 17.4893L3.43301 17.4908C3.44963 17.5064 3.46555 17.5231 3.48068 17.5409L5.07706 19.4117C5.09947 19.438 5.13892 19.4411 5.16517 19.4187C5.19143 19.3963 5.19455 19.3568 5.17215 19.3306L3.57601 17.4601C3.56337 17.4452 3.55021 17.4309 3.53669 17.4173C3.56885 17.3635 3.61027 17.3138 3.6609 17.2705C3.91097 17.0565 4.28056 17.0848 4.49319 17.3355L5.58224 18.6117C5.60465 18.638 5.6441 18.6411 5.67036 18.6187C5.69661 18.5963 5.69974 18.5569 5.67733 18.5306Z" fill="#D6A089"/>
<path d="M10 9.28889C10 5.82222 12.6796 3 15.9947 3C19.3098 3 21.9894 5.82222 22 9.28889V9.5H23C23.4142 9.5 23.75 9.83579 23.75 10.25C23.75 10.6642 23.4142 11 23 11H9C8.58579 11 8.25 10.6642 8.25 10.25C8.25 9.83579 8.58579 9.5 9 9.5H10V9.28889Z" fill="#321B41"/>
<path d="M21.9509 8.5H10.0468C10.0159 8.75847 10 9.02177 10 9.28889V9.5H22V9.28889C21.9992 9.02177 21.9825 8.75847 21.9509 8.5Z" fill="#C790F1"/>
</svg>

<svg xmlns="http://www.w3.org/2000/svg" width="32" height="32" fill="none"><path fill="#FCD53F" d="M26.75 16.5a1.75 1.75 0 1 0 0-3.5 1.75 1.75 0 0 0 0 3.5Z"/><path fill="#0084CE" d="M5.75 14.5a1.75 1.75 0 1 0 0-3.5 1.75 1.75 0 0 0 0 3.5Z"/><path fill="#86D72F" d="M24.75 6.5a1.75 1.75 0 1 0 0-3.5 1.75 1.75 0 0 0 0 3.5Z"/><path fill="#F92F60" d="M8.75 5.5a1.75 1.75 0 1 0 0-3.5 1.75 1.75 0 0 0 0 3.5Z"/><path fill="#E1D8EC" d="M23.524 30v-7.39a10.949 10.949 0 0 0-14.92.03V30h1.9l.737-.432.736.432h7.995l.76-.432.759.432h2.034Z"/><path fill="#F3EEF8" d="m13.5 24-.5-3.5h6l-.5 3.5h-5Z"/><path fill="#F70A8D" d="m14.221 22.66 1.548.93c.154.09.231.25.231.41 0-.16.077-.32.23-.41l1.549-.93c.538-.33 1.221.08 1.221.73v1.22c0 .65-.683 1.06-1.221.73l-1.548-.93A.47.47 0 0 1 16 24a.47.47 0 0 1-.23.41l-1.549.93c-.538.33-1.221-.08-1.221-.73v-1.22c0-.65.683-1.06 1.221-.73Z"/><path fill="#F837A2" d="M15.214 23.48v.9c0 .27.22.48.48.48h.71c.27 0 .48-.22.48-.48v-.9a.48.48 0 0 0-.48-.48h-.71a.48.48 0 0 0-.48.48Z"/><path fill="#F3EEF8" d="M16.75 26.25a.75.75 0 1 1-1.5 0 .75.75 0 0 1 1.5 0ZM16.75 28.25a.75.75 0 1 1-1.5 0 .75.75 0 0 1 1.5 0Z"/><path fill="#8D65C5" d="M21.5 21.127V30H20v-9.584c.519.199 1.02.437 1.5.71ZM12 20.479V30h-1.5v-8.78c.479-.285.98-.533 1.5-.741Z"/><path fill="#FFF9BA" d="M9.058 11c-.09.399-.25.781-.476 1.127l-.002.004a3.515 3.515 0 0 0-.235 3.457.548.548 0 0 1 0 .485A3.423 3.423 0 0 0 11.429 21h9.142A3.423 3.423 0 0 0 24 17.571c0-.539-.13-1.045-.345-1.498a.548.548 0 0 1 0-.485c.226-.464.345-.981.345-1.52 0-.498-.102-.966-.286-1.391h.006a3.408 3.408 0 0 0-.3-.547l-.002-.003A3.44 3.44 0 0 1 22.942 11L16 10l-6.942 1Z"/><path fill="#E4B29A" d="M15.995 22.5c-1.108 0-1.995-.813-1.995-1.81V19.5h4v1.19c-.01.997-.905 1.81-2.005 1.81ZM12.804 14.39a1.68 1.68 0 1 1-3.36 0 1.68 1.68 0 0 1 3.36 0ZM22.674 14.39a1.68 1.68 0 1 1-3.36 0 1.68 1.68 0 0 1 3.36 0Z"/><path fill="#EEBFAA" d="M20.089 10.45h-3.316c-1.32 0-2.55-.685-3.287-1.827-.128-.187-.394-.156-.482.062l-.08.208a2.45 2.45 0 0 1-1.23 1.35.34.34 0 0 0-.108.04c-.246.126-.816.53-.836 1.569l.138 3.488c.118 3.094 2.381 5.16 5.117 5.16 2.745 0 4.999-2.066 5.117-5.16l.128-3.312c0-1.474-.974-1.578-1.161-1.578Z"/><path fill="#990838" d="M16 17.653a3.088 3.088 0 0 1-1.51-.381c-.152-.085-.304.095-.213.243A2.03 2.03 0 0 0 16 18.5a2.03 2.03 0 0 0 1.724-.985c.09-.148-.072-.328-.213-.243a3.088 3.088 0 0 1-1.51.38Z"/><path fill="#D19479" d="m15.656 14.289-.493 1.742c-.103.354.14.719.483.719h.735c.345 0 .587-.365.484-.72l-.493-1.741c-.111-.385-.614-.385-.716 0Z"/><path fill="#000" d="M13.213 12.75c.602 0 1.095.42 1.396.88-.252.075-.497.145-.74.214a25.35 25.35 0 0 0-1.4.426l-.512-.46a.443.443 0 0 1 .04-.69c.342-.24.794-.37 1.216-.37ZM18.776 12.75c-.603 0-1.095.42-1.396.88.251.075.497.145.74.214.466.132.924.262 1.4.426l.512-.46c.21-.19.19-.53-.04-.69a2.174 2.174 0 0 0-1.216-.37Z"/><path fill="#fff" d="M12.214 14.08c.16-.63.73-1.09 1.4-1.09.7 0 1.28.5 1.41 1.16.02.15-.09.28-.24.28h-2.29c-.19 0-.32-.17-.28-.35ZM19.934 14.08c-.16-.63-.73-1.09-1.4-1.09-.7 0-1.28.5-1.41 1.16-.02.15.09.28.24.28h2.29c.19 0 .32-.17.28-.35Z"/><path fill="#7D4533" d="M12.904 14.19c0-.51.41-.92.92-.92s.92.41.91.92c0 .08-.01.16-.03.24h-1.77a.928.928 0 0 1-.03-.24ZM19.244 14.19c0-.51-.41-.92-.92-.92s-.92.41-.91.92c0 .08.01.16.03.24h1.77c.02-.07.03-.16.03-.24Z"/><path fill="#000" d="M13.824 13.66c.29 0 .53.24.53.53 0 .09-.03.17-.07.24h-.93a.475.475 0 0 1-.06-.24c0-.29.24-.53.53-.53ZM18.334 13.66c-.29 0-.53.24-.53.53 0 .09.02.17.07.24h.93c.04-.07.06-.15.06-.24 0-.29-.24-.53-.53-.53Z"/><path fill="#fff" d="M13.674 13.82a.16.16 0 1 1-.32 0 .16.16 0 0 1 .32 0ZM18.204 13.82a.16.16 0 1 1-.32 0 .16.16 0 0 1 .32 0Z"/><path fill="#A56953" d="M12.373 11.806a.282.282 0 0 0 .343.448l.002-.002.017-.011a2.134 2.134 0 0 1 .385-.198 2.282 2.282 0 0 1 1.101-.143.282.282 0 0 0 .066-.56 2.848 2.848 0 0 0-1.763.367c-.046.027-.082.05-.107.068l-.044.031ZM19.828 12.202a.282.282 0 0 0-.052-.396l-.044-.031a2.712 2.712 0 0 0-.497-.257 2.848 2.848 0 0 0-1.373-.178.282.282 0 1 0 .065.56 2.283 2.283 0 0 1 1.487.34l.017.012.002.002c.124.095.3.071.395-.052Z"/><path fill="#EEBFAA" d="m2.158 19.247.292.34a.643.643 0 0 0-.037.882s.215.247.604.699c.46.524 1.115.832 1.81.832L9 22.39v-2.393c0-.956-.338-1.87-.961-2.59l-.542-.616A.824.824 0 0 0 6.33 16.7a.833.833 0 0 0-.092 1.171l.368.411c.071.082.01.216-.103.216l-.946-.01-1.017-1.192a.655.655 0 0 0-1.082.135.654.654 0 0 0-1.02.771.655.655 0 0 0-.281 1.046ZM27.52 22.22a6.231 6.231 0 0 0-.421 1.54c-.038.24-.103.47-.206.69-.534 1.14-1.834 1.61-2.901 1.05-.468-.24-.805-.64-1.01-1.1-.01-.01-.02-.02-.02-.03-.112-.29-1.066-2.57-1.656-3.96-.14-.32-.009-.69.29-.83.3-.15.646-.01.777.31.006 0 .053.113.13.3l.207.49c.019.04.084.02.066-.03l-.543-1.61c-.113-.33.046-.71.355-.82.3-.11.627.06.74.38l.449 1.48c.01.02.037.01.037-.01-.178-1-.318-2.06-.318-2.11-.028-.34.215-.65.533-.68.319-.03.609.23.637.57 0 .02.093 1.03.346 2.23.01.02.028.04.047.04.028-.01.046-.03.046-.06-.004-.041-.01-.084-.017-.129a17.003 17.003 0 0 1-.151-1.76c-.01-.34.243-.63.57-.64.319-.01.59.26.6.61.01.54.103 1.84.365 2.89.018.08.112.09.14.02.243-.48.43-.8.45-.83.186-.32.589-.42.888-.21.3.2.393.63.197.95l-.038.07c-.093.169-.344.626-.59 1.19Z"/><path fill="#CDC4D6" d="M5 22h4v8H5v-8ZM23 24.38h4V30h-4v-5.62Z"/><path fill="#D6A089" d="m5.677 18.53-1.089-1.276a.71.71 0 0 0-1.148.082.711.711 0 0 0-.873.045.716.716 0 0 0-.21.786.718.718 0 0 0-.247 1.12l.305.316c.019.02.046.024.07.015.014 0 .029-.005.04-.015a.586.586 0 0 1 .833.064l.654.79a.063.063 0 0 0 .096-.079l-.654-.79a.71.71 0 0 0-.98-.104l-.27-.279a.592.592 0 0 1 .898-.77l1.322 1.549a.062.062 0 1 0 .095-.082l-1.321-1.548a.709.709 0 0 0-.723-.23.59.59 0 0 1 .174-.648.586.586 0 0 1 .754-.011c.006.01.015.019.027.024l.003.002a.615.615 0 0 1 .048.05l1.596 1.87a.062.062 0 1 0 .095-.08l-1.596-1.87a.737.737 0 0 0-.04-.044.586.586 0 0 1 .957-.082l1.09 1.277a.062.062 0 1 0 .094-.081Z"/><path fill="#321B41" d="M10 9.289C10 5.822 12.68 3 15.995 3S21.989 5.822 22 9.289V9.5h1a.75.75 0 0 1 0 1.5H9a.75.75 0 0 1 0-1.5h1v-.211Z"/><path fill="#C790F1" d="M21.95 8.5H10.048c-.031.258-.047.522-.047.789V9.5h12v-.211c0-.267-.017-.53-.05-.789Z"/></svg>
